!!!!SEGMENT: pl-cz--iii-277--002_gollabek-jakub--symfonia-c-andante.krn
!!!cenid: 17xx:892
!!!COM: Gołąbek, Jakub
!!!COM-rismID: pe30008748
!!!CDT: 1739-1789/03/30
!!!CNT: Polish
!!!OPR: Symfonia C
!!!OTL: Andante
!!!OMV: 002
!!!PDT:
!!!AGN: Secular
!!!SMS-siglum: PL-CZ
!!!SMS-shelfmark: III-277
!!!SMS-shelfwork: 001-002 M
!!!SMS-variant:
!!!SMS-altvar:
!!!NIFC-rismSourceID: 300000361
!!!NIFC-islandoraID: pl-cz:37120
!!!URL-pdf-islandora: https://repozytorium.nifc.pl/islandora/object/pl-cz%3A37120/datastream/PDF/view
!!!URL-scan:
!!!ONB-nifc: UWAGA: części Symfonii: Allegro molto, Andante, Prestissimo
!!!AIN: 1 cbass 2 cor 2 oboe 1 viola 2 violn
!!!key:
**kern	**dynam	**kern	**dynam	**kern	**dynam	**kern	**dynam	**kern	**kern	**kern	**kern
*group3	*	*group3	*	*group3	*	*group3	*	*group2	*group2	*group1	*group1
*part8	*part8	*part7	*part7	*part6	*part6	*part5	*part5	*part4	*part3	*part2	*part1
*staff8	*	*staff7	*	*staff6	*	*staff5	*	*staff4	*staff3	*staff2	*staff1
*I"Baſso	*	*I"Viola.	*	*I"Violino Secundo	*	*I"Violino Primo.	*	*I"Cornu Secundo.	*I"Cornu Primo in C	*I"Oboe Secundo.	*I"Oboe Primo.
*I'bc	*	*I'vla	*	*I'vl 2	*	*I'vl 1	*	*I'cor 2	*I'cor 1	*I'ob 2	*I'ob 1
*Icbass	*	*Iviola	*	*Ivioln	*	*Ivioln	*	*Icor	*Icor	*Ioboe	*Ioboe
*ICstr	*	*ICstr	*	*ICstr	*	*ICstr	*	*ICbras	*ICbras	*ICww	*ICww
*>[A,A,B,B]	*	*>[A,A,B,B]	*	*>[A,A,B,B]	*	*>[A,A,B,B]	*	*>[A,A,B,B]	*>[A,A,B,B]	*>[A,A,B,B]	*>[A,A,B,B]
*clefF4	*	*clefC3	*	*clefG2	*	*clefG2	*	*clefG2	*clefG2	*clefG2	*clefG2
*Trd0c0	*	*	*	*	*	*	*	*Trd0c0	*Trd0c0	*	*
*k[b-]	*	*k[b-]	*	*k[b-]	*	*k[b-]	*	*k[b-]	*k[b-]	*k[b-]	*k[b-]
*F:	*	*F:	*	*F:	*	*F:	*	*F:	*F:	*F:	*F:
*M2/2	*	*M2/2	*	*M2/2	*	*M2/2	*	*M2/2	*M2/2	*M2/2	*M2/2
*met(c|)	*	*met(c|)	*	*met(c|)	*	*met(c|)	*	*met(c|)	*met(c|)	*met(c|)	*met(c|)
*>A	*	*>A	*	*>A	*	*>A	*	*>A	*>A	*>A	*>A
!LO:TX:a:i:t=Andante molto	!LO:DY:rj:t=pianissimo	!LO:TX:a:i:t=Andante molto	!LO:DY:a:t=pianiſsime	!LO:TX:a:i:t=Andante	!LO:DY:rj:t=pianissimo	!LO:TX:a:i:t=Andante	!LO:DY:rj:t=pianiſsimo	!LO:TX:a:i:t=Andante Tacet	!LO:TX:a:i:t=Andante Tacet	!LO:TX:i:a:t=Andte molto	!LO:TX:a:i:t=Andante molito
4r	pp	4r	pp	8cc|\L	pp	8cc|\L	pp	4ryy	4ryy	4r	4r
.	.	.	.	8cc|\J	.	8cc|\J	.	.	.	.	.
=1	=1	=1	=1	=1	=1	=1	=1	=1	=1	=1	=1
4F\	.	4c\	.	4cc\	.	4cc|\	.	1ryy	1ryy	00r	00r
4r	.	4r	.	8a\L	.	(8a\L	.	.	.	.	.
.	.	.	.	8f\J	.	8f\J)	.	.	.	.	.
4C\	.	4c\	.	8f/L	.	(8f/L	.	.	.	.	.
.	.	.	.	8e/J	.	8e/J)	.	.	.	.	.
8C\L	.	4c\	.	8e/L	.	(8g/L	.	.	.	.	.
8E\J	.	.	.	8g/J	.	8b-/J)	.	.	.	.	.
=2	=2	=2	=2	=2	=2	=2	=2	=2	=2	=2	=2
*2\right	*	*2\right	*	*	*	*	*	*	*	*	*
2E\	.	2c\	.	2g/	.	2b-/	.	1ryy	1ryy	.	.
4F\	.	4c\	.	4f/	.	4a/	.	.	.	.	.
4r	.	4r	.	8f/L	.	8f|/L	.	.	.	.	.
.	.	.	.	8f/J	.	8f|/J	.	.	.	.	.
=3	=3	=3	=3	=3	=3	=3	=3	=3	=3	=3	=3
4BB-/	.	4B-/	.	4d/	.	4d/	.	1ryy	1ryy	.	.
4BB-/	.	4B-/	.	(8d/L	.	(8b-/L	.	.	.	.	.
.	.	.	.	8B-/J)	.	8g/J)	.	.	.	.	.
4C/	.	4c/	.	(8A/L	.	(8f/L	.	.	.	.	.
.	.	.	.	8G/J)	.	8e/J)	.	.	.	.	.
4E/	.	4e\	.	(8b-/L	.	(8dd\L	.	.	.	.	.
.	.	.	.	8g/J)	.	8b-\J)	.	.	.	.	.
!	!	!LO:LB:g=original	!	!	!	!	!	!	!	!	!
=4	=4	=4	=4	=4	=4	=4	=4	=4	=4	=4	=4
(2E\	.	2c/	.	4gM/	.	4b-M\	.	1ryy	1ryy	.	.
.	.	.	.	(8f/L	.	(8a\L	.	.	.	.	.
.	.	.	.	8g/J)	.	8b-\J)	.	.	.	.	.
4F\)	.	4c/	.	4a/	.	4cc\	.	.	.	.	.
4r	.	4r	.	(8c/L	.	(8a\L	.	.	.	.	.
.	.	.	.	8A/J)	.	8f\J)	.	.	.	.	.
=5	=5	=5	=5	=5	=5	=5	=5	=5	=5	=5	=5
4BB-/	.	4B-/	.	4G/	.	(8e/L	.	1ryy	1ryy	00r	00r
.	.	.	.	.	.	8d/J)	.	.	.	.	.
4BB-/	.	4B-/	.	2d/	.	2b-/	.	.	.	.	.
4C/	.	4c/	.	.	.	.	.	.	.	.	.
4E/	.	4c/	.	8B-/L	.	(8g/L	.	.	.	.	.
.	.	.	.	8G/J	.	8e/J)	.	.	.	.	.
!	!	!	!	!LO:LB:g=original	!	!LO:LB:g=original	!	!	!	!	!
=6	=6	=6	=6	=6	=6	=6	=6	=6	=6	=6	=6
.	.	.	.	8qqG/	.	8qqe/	.	.	.	.	.
4F\	.	2c/	.	2A/	.	2f/	.	1ryy	1ryy	.	.
4C/	.	.	.	.	.	.	.	.	.	.	.
4FF/	.	2r	.	2r	.	2r	.	.	.	.	.
4r	.	.	.	.	.	.	.	.	.	.	.
=7	=7	=7	=7	=7	=7	=7	=7	=7	=7	=7	=7
!	!	!	!	!	!	!	!LO:DY:a:t=f	!	!	!	!
.	.	.	.	.	.	8qqf/	f	.	.	.	.
*	*	*	*	*	*	*2\right	*	*	*	*	*
1r	.	1r	.	1r	.	2aa\	.	1ryy	1ryy	.	.
!	!	!	!	!	!	!	!LO:DY:a:t=p	!	!	!	!
.	.	.	.	.	.	(8gg\L	p	.	.	.	.
.	.	.	.	.	.	8ff\)	.	.	.	.	.
.	.	.	.	.	.	(8ee\	.	.	.	.	.
.	.	.	.	.	.	8dd\J)	.	.	.	.	.
=8	=8	=8	=8	=8	=8	=8	=8	=8	=8	=8	=8
!	!	!	!	!	!LO:DY:a:t=f.	!	!	!	!	!	!
.	.	.	.	8qqA/	f	.	.	.	.	.	.
!	!	!	!	!	!	!	!LO:DY:a:rj	!	!	!	!
1r	.	1r	.	2a/	.	(2cc#X\	f	1ryy	1ryy	.	.
!	!	!	!	!	!LO:DY:a:t=p.	!	!LO:DY:a	!	!	!	!
.	.	.	.	(8g/L	p	4dd\)	p	.	.	.	.
.	.	.	.	8f/	.	.	.	.	.	.	.
.	.	.	.	8e/	.	4r	.	.	.	.	.
.	.	.	.	8d/J)	.	.	.	.	.	.	.
=9	=9	=9	=9	=9	=9	=9	=9	=9	=9	=9	=9
!	!	!	!LO:DY:a:rj	!	!LO:DY:a:t=f	!	!LO:DY:a:rj:t=f	!	!	!	!
1r	.	2a\	f	(2c#X/	f	(2ee\	f	1ryy	1ryy	00r	00r
!	!	!	!LO:DY:a:rj	!	!LO:DY:a:rj:t=p	!	!LO:DY:a:rj:t=p	!	!	!	!
.	.	8g\L	p	4d/)	p	4ff\)	p	.	.	.	.
.	.	(8f\	.	.	.	.	.	.	.	.	.
.	.	8e\)	.	4r	.	4r	.	.	.	.	.
.	.	8d\J	.	.	.	.	.	.	.	.	.
=10	=10	=10	=10	=10	=10	=10	=10	=10	=10	=10	=10
!	!LO:DY:a:rj	!	!LO:DY:rj	!	!LO:DY:a	!	!LO:DY:a:rj:t=f	!	!	!	!
2A\	f	(2c#X\	f	(2e/	f	(2gg\	f	1ryy	1ryy	.	.
!	!LO:DY:a:rj:t=p.	!	!LO:DY:a	!	!LO:DY:a	!	!LO:DY:b:rj:t=p	!	!	!	!
(8G\L	p	4d\)	p	4f/)	p	4aa\)	p	.	.	.	.
8F\	.	.	.	.	.	.	.	.	.	.	.
8E\	.	4r	.	4r	.	4r	.	.	.	.	.
8D\J)	.	.	.	.	.	.	.	.	.	.	.
!LO:LB:g=original	!	!	!	!	!	!	!	!	!	!	!
=11	=11	=11	=11	=11	=11	=11	=11	=11	=11	=11	=11
!	!LO:DY:a:t=f.	!	!LO:DY:a	!	!LO:DY:a	!	!LO:DY:rj	!	!	!	!
(2C#X/	f	2e\	f	2g/	f	(2gg\	f	1ryy	1ryy	.	.
!	!LO:DY:a:t=p	!	!LO:DY:a	!	!LO:DY:a:t=p	!	!LO:DY:rj	!	!	!	!
4D/)	p	4f\	p	4a/	p	4ff\)	p	.	.	.	.
4r	.	4r	.	4r	.	4r	.	.	.	.	.
=12	=12	=12	=12	=12	=12	=12	=12	=12	=12	=12	=12
!	!	!	!	!	!	!	!LO:DY:a:rj	!	!	!	!
0r	.	1r	.	1r	.	2gg\	f	1ryy	1ryy	.	.
!	!	!	!	!	!	!	!LO:DY:a:rj:t=p	!	!	!	!
.	.	.	.	.	.	(8ff\L	p	.	.	.	.
.	.	.	.	.	.	8ee\	.	.	.	.	.
.	.	.	.	.	.	8dd\	.	.	.	.	.
.	.	.	.	.	.	8cc\J)	.	.	.	.	.
=13	=13	=13	=13	=13	=13	=13	=13	=13	=13	=13	=13
!	!	!	!	!	!LO:DY:a:rj:t=f	!	!LO:DY:rj	!	!	!	!
.	.	1r	.	2g/	f	(2bn\	f	1ryy	1ryy	00r	00r
!	!	!	!	!	!LO:DY:a:t=p.	!	!LO:DY:rj:r=p	!	!	!	!
.	.	.	.	(8f/L	p	4cc\)	p	.	.	.	.
.	.	.	.	8e/	.	.	.	.	.	.	.
.	.	.	.	8d/	.	4r	.	.	.	.	.
.	.	.	.	8cn/J)	.	.	.	.	.	.	.
!	!	!	!	!	!	!LO:LB:g=original	!	!	!	!	!
=14	=14	=14	=14	=14	=14	=14	=14	=14	=14	=14	=14
!	!	!	!	!	!LO:DY:a:rj:t=f	!	!LO:DY:a:rj:t=f.	!	!	!	!
1r	.	2g\	f	2Bn/	f	(2dd\	f	1ryy	1ryy	.	.
!	!	!	!	!	!LO:DY:a:rj	!	!LO:DY:a:t=p	!	!	!	!
.	.	8f\L	p	4c/	p	4ee\)	p	.	.	.	.
.	.	(8e\	.	.	.	.	.	.	.	.	.
.	.	8d\	.	4r	.	4r	.	.	.	.	.
.	.	8cn\J)	.	.	.	.	.	.	.	.	.
!	!	!	!	!LO:LB:g=original	!	!	!	!	!	!	!
=15	=15	=15	=15	=15	=15	=15	=15	=15	=15	=15	=15
!	!LO:DY:a:rj	!	!LO:DY:a	!	!LO:DY:a	!	!LO:DY:a:rj:t=f	!	!	!	!
2G\	f	2Bn/	f	(2d/	f	(2ff\	f	1ryy	1ryy	.	.
!	!LO:DY:a:rj	!	!	!	!LO:DY:a:t=p	!	!LO:DY:a	!	!	!	!
8F\L	p	4c/	p	4e/)	p	4gg\)	p	.	.	.	.
8E\	.	.	.	.	.	.	.	.	.	.	.
8D\	.	4r	.	4r	.	4r	.	.	.	.	.
8Cn\J	.	.	.	.	.	.	.	.	.	.	.
!	!	!LO:PB:g=original	!	!	!	!	!	!	!	!	!
=16	=16	=16	=16	=16	=16	=16	=16	=16	=16	=16	=16
!	!LO:DY:a	!	!LO:DY:a:rj	!	!LO:DY:a:t=f	!	!LO:DY:t=f.	!	!	!	!
2BBn/	f	(2d\	f	(2f/	f	(2ff\	f	1ryy	1ryy	.	.
!	!LO:DY:a	!	!LO:DY:a:rj:t=p	!	!LO:DY:a:t=p	!	!LO:DY:t=p.	!	!	!	!
4C/	p	4e\)	p	4g/)	p	4.ee\)	p	.	.	.	.
4r	.	4r	.	4r	.	.	.	.	.	.	.
.	.	.	.	.	.	8gg\	.	.	.	.	.
=17	=17	=17	=17	=17	=17	=17	=17	=17	=17	=17	=17
!	!	!	!	!	!LO:DY:a:t=p	!	!LO:DY:a:rj	!	!	!	!
4C/	.	4c\	.	4e/	p	4g/	p	1ryy	1ryy	4ee\	4gg\
4C/	.	4c\	.	4e/	.	4g/	.	.	.	4ee\	4gg\
4C/	.	4c\	.	4e/	.	4g/	.	.	.	4ee\	4gg\
4C/	.	4c\	.	4e/	.	4g/	.	.	.	4ee\	4gg\
=18	=18	=18	=18	=18	=18	=18	=18	=18	=18	=18	=18
!	!LO:DY:a:rj	!	!LO:DY:a:t=f.	!	!LO:DY:a:rj:t=f.	!	!LO:DY:a	!	!	!	!
4C/	f	4c\	f	2e/	f	2g/	f	1ryy	1ryy	8ee\L	(8gg\L
.	.	.	.	.	.	.	.	.	.	8cc\	8ee\)
4r	.	4r	.	.	.	.	.	.	.	8cc\	(8ee\
.	.	.	.	.	.	.	.	.	.	8ee\J	8gg\J)
4GG/	.	4Bn/	.	2dT/	.	2fT/	.	.	.	8dd\L	(8ff\L
.	.	.	.	.	.	.	.	.	.	8bn\	8dd\)
4r	.	4r	.	.	.	.	.	.	.	8b\	(8dd\
.	.	.	.	.	.	.	.	.	.	8dd\J	8ff\J)
=19	=19	=19	=19	=19	=19	=19	=19	=19	=19	=19	=19
!	!LO:DY:a:rj	!	!LO:DY:a:t=p.	!	!LO:DY:a:t=p	!	!LO:DY:a:t=p.	!	!	!	!
4C/	p	4G/	p	4c/	p	4e/	p	1ryy	1ryy	4cc\	4ee\
4C/	.	4c/	.	4e/	.	4g/	.	.	.	4ee\	4gg\
4C/	.	4c/	.	4e/	.	4g/	.	.	.	4ee\	4gg\
4C/	.	4c/	.	4e/	.	4g/	.	.	.	4ee\	4gg\
=20	=20	=20	=20	=20	=20	=20	=20	=20	=20	=20	=20
!	!LO:DY:a:rj	!	!LO:DY:a	!	!LO:DY:a:t=f	!	!LO:DY:a:t=f	!	!	!	!
4C/	f	4c\	f	2e/	f	2g/	f	1ryy	1ryy	8cc\L	8ee\L
.	.	.	.	.	.	.	.	.	.	8ee\	8gg\
4r	.	4r	.	.	.	.	.	.	.	8ee\	8gg\
.	.	.	.	.	.	.	.	.	.	8cc\J	8ee\J
4GG/	.	4Bn\	.	2d/	.	2f/	.	.	.	8bn\L	8dd\L
.	.	.	.	.	.	.	.	.	.	8dd\	8ff\
4r	.	4r	.	.	.	.	.	.	.	8dd\	8ff\
.	.	.	.	.	.	.	.	.	.	8b\J	8dd\J
=21	=21	=21	=21	=21	=21	=21	=21	=21	=21	=21	=21
!	!	!	!	!	!LO:DY:a:t=p	!	!LO:DY:a:t=p	!	!	!	!
.	.	.	.	8qqd/	p	8qqf/	p	.	.	.	.
*	*	*	*	*	*	*	*	*	*	*2\right	*2\right
!	!LO:DY:a:rj	!	!	!	!	!	!	!	!	!	!
2C/	p	2G/	.	2c/	.	2e/	.	1ryy	1ryy	2cc\	2ee\
2r	.	2r	.	4r	.	4r	.	.	.	2r	2r
.	.	.	.	(8g/L	.	(8g/L	.	.	.	.	.
.	.	.	.	8b-X/J)	.	8b-X/J)	.	.	.	.	.
!LO:LB:g=original	!	!	!	!	!	!	!	!	!	!	!
=22	=22	=22	=22	=22	=22	=22	=22	=22	=22	=22	=22
!	!	!	!	!	!LO:DY:a:rj:t=f.	!	!LO:DY:a:rj	!	!	!	!
4r	.	4r	.	2b-/	f	(2b-/	f	1ryy	1ryy	0r	0r
!	!LO:DY:a:rj:t=f	!	!	!	!	!	!	!	!	!	!
4FF/	f	4F/	.	.	.	.	.	.	.	.	.
!	!LO:DY:a:rj:t=p	!	!	!	!LO:DY:a:t=p	!	!LO:DY:a:t=p	!	!	!	!
4F\	p	4f\	.	4a/	p	4a/)	p	.	.	.	.
4r	.	4r	.	(8a/L	.	(8a/L	.	.	.	.	.
.	.	.	.	8dd/J)	.	8cc/J)	.	.	.	.	.
!	!	!	!	!	!	!LO:LB:g=original	!	!	!	!	!
=23	=23	=23	=23	=23	=23	=23	=23	=23	=23	=23	=23
*	*	*	*	*2\right	*	*	*	*	*	*	*
!	!	!	!	!	!LO:DY:a:rj	!	!LO:DY:a	!	!	!	!
4r	.	4r	.	(2cc\	f	(2cc\	f	1ryy	1ryy	.	.
!	!LO:DY:a:t=f.	!	!	!	!	!	!	!	!	!	!
4FF/	f	4G/	.	.	.	.	.	.	.	.	.
!	!LO:DY:a:t=p	!	!	!	!LO:DY:a:t=p	!	!	!	!	!	!
4G\	p	4g\	.	4bn\)	p	4bn\)	.	.	.	.	.
!	!	!	!	!	!	!	!LO:DY:a	!	!	!	!
4r	.	4r	.	(8b\L	.	8dd\L	p	.	.	.	.
.	.	.	.	8dd\J)	.	8ff\J	.	.	.	.	.
!	!	!LO:LB:g=original	!	!LO:LB:g=original	!	!	!	!	!	!	!
=24	=24	=24	=24	=24	=24	=24	=24	=24	=24	=24	=24
!	!LO:DY:a:t=f.	!	!LO:DY:a:t=f	!	!LO:DY:a	!	!	!	!	!	!
4r	f	4r	f	(2ee\	f	(2ff\	f	1ryy	1ryy	2dd\	2ff\
4Bn\	.	4g\	.	.	.	.	.	.	.	.	.
!	!LO:DY:a	!	!LO:DY:a:rj:t=p	!	!LO:DY:a	!	!LO:DY:t=p	!	!	!	!
4c\	p	4g\	p	4cc\)	p	4ee\)	p	.	.	4cc\	4ee\
4r	.	4r	.	(8bn\L	.	(8dd\L	.	.	.	4r	4r
.	.	.	.	8dd\J)	.	8ff\J)	.	.	.	.	.
!	!	!	!	!	!	!	!	!	!	!LO:LB:g=original	!
=25	=25	=25	=25	=25	=25	=25	=25	=25	=25	=25	=25
!	!	!	!LO:DY:a	!	!LO:DY:a:rj	!	!	!	!	!	!
4r	.	4r	f	(2dd\	f	(2ff\	f	1ryy	1ryy	2dd\	2ff\
!	!LO:DY:a:rj	!	!	!	!	!	!	!	!	!	!
4Bn\	f	4g\	.	.	.	.	.	.	.	.	.
!	!LO:DY:a:rj	!	!LO:DY:a:rj:t=p.	!	!LO:DY:a	!	!	!	!	!	!
4c\	p	4g\	p	4cc\)	p	4ee\)	p	.	.	4cc\	4ee\
4r	.	4r	.	8cc\L	.	(8cc\L	.	.	.	4r	4r
.	.	.	.	8ee\J	.	8ee\J)	.	.	.	.	.
=26	=26	=26	=26	=26	=26	=26	=26	=26	=26	=26	=26
!	!	!	!	!	!	!	!	!	!	!	!LO:TX:a:t=1
4F\	.	4f\	.	4a\	.	4a\	.	1ryy	1ryy	1r	1r
4r	.	4r	.	(8ff\L	.	(8ff\L	.	.	.	.	.
.	.	.	.	8dd\J)	.	8dd\J)	.	.	.	.	.
4G\	.	4g\	.	(8cc\L	.	(8cc\L	.	.	.	.	.
.	.	.	.	8bn\J)	.	8bn\J)	.	.	.	.	.
4r	.	4r	.	(8dd\L	.	(8ff\L	.	.	.	.	.
.	.	.	.	8ff\J)	.	8aa\J)	.	.	.	.	.
!	!	!	!	!	!	!	!	!	!	!	!LO:LB:g=original
=27	=27	=27	=27	=27	=27	=27	=27	=27	=27	=27	=27
!	!LO:DY:a:rj:t=f.	!	!	!	!LO:DY:a:rj:t=f	!	!	!	!	!	!
2Bn\	f	2bn\	f	2ff\	f	2aa\	f	1ryy	1ryy	2ff\	2aa\
!	!LO:DY:a:rj:t=p	!	!LO:DY:t=p	!	!LO:DY:a:rj:t=p	!	!	!	!	!	!
4c\	p	4cc\	p	(4ee\	p	(4gg\	.	.	.	4ee\	4gg\
4r	.	4r	.	4dd\)	.	4ff\)	.	.	.	4dd\	4ff\
=28	=28	=28	=28	=28	=28	=28	=28	=28	=28	=28	=28
*	*	*	*	*Xtuplet	*	*Xtuplet	*	*	*	*	*
4c\	.	4cc\	.	12g/L	.	12ee\L	.	1ryy	1ryy	4cc\	4ee\
.	.	.	.	12f/	.	(12dd#X\	.	.	.	.	.
.	.	.	.	12g/J	.	12ee\J)	.	.	.	.	.
.	.	.	.	.	.	8qqgg/	.	.	.	.	.
4F\	.	4f\	.	12a/L	.	12ff\L	.	.	.	4dd\	4ff\
.	.	.	.	12g/	.	(12ee\	.	.	.	.	.
.	.	.	.	12f/J	.	12dd#\J)	.	.	.	.	.
4G\	.	4g\	.	4e/	.	4cc\	.	.	.	4cc\	4ee\
4G\	.	4g\	.	4d/	.	4bn\	.	.	.	4bn\	4dd\
!	!	!	!	!LO:LB:g=original	!	!	!	!	!	!	!
=29	=29	=29	=29	=29	=29	=29	=29	=29	=29	=29	=29
!	!	!	!	!	!	!LO:SIC:v:s=8qqbn/	!	!	!	!	!
.	.	.	.	8qqd/	.	8qqb-/	.	.	.	.	.
4C/	.	2g\	.	2e/	.	2cc\	.	1ryy	1ryy	2cc\	2ee\
4c\	.	.	.	.	.	.	.	.	.	.	.
4C/	.	2r	.	4r	.	4r	.	.	.	2r	2r
4r	.	.	.	(8cc\L	.	(8cc\L	.	.	.	.	.
.	.	.	.	8ee\J)	.	8ee\J)	.	.	.	.	.
!	!	!	!	!	!	!LO:LB:g=original	!	!	!	!	!
=30	=30	=30	=30	=30	=30	=30	=30	=30	=30	=30	=30
!	!	!	!	!	!	!	!	!	!	!	!LO:TX:a:t=1
4F\	.	4f\	.	4a\	.	4a\	.	1ryy	1ryy	1r	1r
4r	.	4r	.	(8ff\L	.	(8ff\L	.	.	.	.	.
.	.	.	.	8dd\J)	.	8dd\J)	.	.	.	.	.
4G\	.	4g\	.	(8cc\L	.	(8cc\L	.	.	.	.	.
.	.	.	.	8bn\J)	.	8bn\J)	.	.	.	.	.
4r	.	4r	.	8dd\L	.	(8ff\L	.	.	.	.	.
.	.	.	.	8ff\J	.	8aa\J)	.	.	.	.	.
!LO:LB:g=original	!	!	!	!	!	!	!	!	!	!	!
=31	=31	=31	=31	=31	=31	=31	=31	=31	=31	=31	=31
!	!LO:DY:a:t=f	!	!	!	!	!	!	!	!	!	!
2Bn\	f	2bn\	f	(2ff\	f	(2aa\	f	1ryy	1ryy	2ff\	2aa\
!	!LO:DY:a:t=p	!	!LO:DY:t=p	!	!LO:DY:t=p	!	!	!	!	!	!
4c\	p	4cc\	p	4ee\)	p	4gg\)	p	.	.	4ee\	4gg\
4r	.	4r	.	4dd\	.	4ff\	.	.	.	4dd\	4ff\
!	!	!LO:LB:g=original	!	!	!	!	!	!	!	!	!
=32	=32	=32	=32	=32	=32	=32	=32	=32	=32	=32	=32
4c\	.	4cc\	.	4g/	.	4ee\	.	1ryy	1ryy	4cc\	4ee\
*	*	*	*	*tuplet	*	*tuplet	*	*	*	*	*
!	!	!	!	!LO:TUP:b	!	!LO:TUP:a	!	!	!	!	!
!	!	!	!	!LO:TX:t=P:problem=klamra łukowa	!	!LO:TX:t=P:problem=klamra łukowa	!	!	!	!	!
4F\	.	4f\	.	12a/L	.	12ff\L	.	.	.	4dd\	4ff\
.	.	.	.	12g/	.	12ee\	.	.	.	.	.
.	.	.	.	12f/J	.	12dd\J	.	.	.	.	.
4G\	.	4g\	.	4e/	.	4cc\	.	.	.	4cc\	4ee\
4G\	.	4g\	.	4d/	.	4bn\	.	.	.	4bn\	4dd\
=33	=33	=33	=33	=33	=33	=33	=33	=33	=33	=33	=33
4C/	.	4g\	.	8e/	.	8cc\	.	1ryy	1ryy	4cc\	4ee\
.	.	.	.	8r	.	8r	.	.	.	.	.
4r	.	4r	.	4r	.	4r	.	.	.	4r	4r
4GG/	.	4G/	.	8bn\	.	8dd\	.	.	.	4dd\	4ff\
.	.	.	.	8r	.	8r	.	.	.	.	.
4r	.	4r	.	4r	.	4r	.	.	.	4r	4r
=34	=34	=34	=34	=34	=34	=34	=34	=34	=34	=34	=34
4C/	.	4G/	.	8cc\	.	8ee\	.	1ryy	1ryy	4ee\	4gg\
.	.	.	.	8r	.	8r	.	.	.	.	.
4r	.	4r	.	4r	.	4r	.	.	.	4r	4r
4BBn/	.	4G/	.	8dd\	.	8ff\	.	.	.	4dd\	4ff\
.	.	.	.	8r	.	8r	.	.	.	.	.
4r	.	4r	.	4r	.	4r	.	.	.	4r	4r
=35	=35	=35	=35	=35	=35	=35	=35	=35	=35	=35	=35
8qqBB-/	.	8qqB-/	.	8qqdd/	.	8qqff#X/	.	.	.	.	.
2C/	.	2c/	.	2ee\	.	2gg\	.	1ryy	1ryy	2ee\	2gg\
2r	.	2r	.	4r	.	4r	.	.	.	2r	2r
.	.	.	.	(8g\L	.	(8gg\L	.	.	.	.	.
.	.	.	.	8cc\J)	.	8ccc\J)	.	.	.	.	.
!	!	!	!	!LO:LB:g=original	!	!	!	!	!	!	!
=36	=36	=36	=36	=36	=36	=36	=36	=36	=36	=36	=36
8r	.	8r	.	(8cc\L	.	(8ccc\L	.	1ryy	1ryy	4r	4r
8FF/L	.	8F/L	.	8a\J)	.	8aa\J)	.	.	.	.	.
8AA/	.	8A/	.	2a\	.	2aa\	.	.	.	4ff\	4aa\
8C/J	.	8c/J	.	.	.	.	.	.	.	.	.
4F\	.	4f\	.	.	.	.	.	.	.	4ff\	4aa\
4r	.	4r	.	(8a\L	.	(8aa\L	.	.	.	4r	4r
.	.	.	.	8cc\J)	.	8ccc\J)	.	.	.	.	.
!	!	!	!	!	!	!LO:LB:g=original	!	!	!	!	!
=37	=37	=37	=37	=37	=37	=37	=37	=37	=37	=37	=37
8r	.	8r	.	(8cc\L	.	(8ccc\L	.	1ryy	1ryy	4r	4r
8C\L	.	8c\L	.	8g\J)	.	8gg\J)	.	.	.	.	.
8E\	.	8e\	.	2g/	.	2gg\	.	.	.	4ee\	4gg\
8G\J	.	8g\J	.	.	.	.	.	.	.	.	.
4c\	.	4cc\	.	.	.	.	.	.	.	4ee\	4gg\
4r	.	4r	.	(8ee\L	.	8ccc\L	.	.	.	4r	4r
.	.	.	.	8ff\J)	.	8aa\J	.	.	.	.	.
!	!	!	!	!	!	!	!	!	!	!LO:LB:g=original	!
=38	=38	=38	=38	=38	=38	=38	=38	=38	=38	=38	=38
4c\	.	4cc\	.	4ee\	.	4gg\	.	1ryy	1ryy	4ee\	4gg\
.	.	.	.	8qqgg/	.	.	.	.	.	.	.
!	!	!	!	!LO:TUP:a	!	!LO:TUP:a	!	!	!	!LO:TUP:a	!LO:TUP:a
!	!	!	!	!LO:TX:t=P:problem=klamra łukowa	!	!LO:TX:t=P:problem=klamra łukowa	!	!	!	!LO:TX:t=P:problem=klamra łukowa	!LO:TX:t=P:problem=klamra łukowa
4F\	.	4f\	.	12ff\L	.	12aa\L	.	.	.	12ff\L	12aa\L
.	.	.	.	12ee\	.	12gg\	.	.	.	12ee\	12gg\
.	.	.	.	12dd\J	.	12ff\J	.	.	.	12dd\J	12ff\J
4G\	.	4g\	.	4cc\	.	4ee\	.	.	.	4cc\	4ee\
4GG/	.	4G/	.	4bn\	.	4ddT\	.	.	.	4bn\	4dd\
!LO:LB:g=original	!	!	!	!	!	!	!	!	!	!	!LO:LB:g=original
=39	=39	=39	=39	=39	=39	=39	=39	=39	=39	=39	=39
!	!	!	!	!	!	!	!	!	!	!LO:SIC:v:s=8qqbn/	!
.	.	.	.	8qqbn/	.	8qqdd/	.	.	.	8qqb-/	8qqdd/
4C/	.	2G/	.	2cc\	.	2cc\	.	2ryy	2ryy	2.cc\	2ee\
4GG/	.	.	.	.	.	.	.	.	.	.	.
4C/	.	4r	.	4r	.	4r	.	4ryy	4ryy	.	4r
!	!	!LO:LB:g=original	!	!	!	!	!	!	!	!	!
=:|!|:	=:|!|:	=:|!|:	=:|!|:	=:|!|:	=:|!|:	=:|!|:	=:|!|:	=:|!|:	=:|!|:	=:|!|:	=:|!|:
*>B	*	*>B	*	*>B	*	*>B	*	*>B	*>B	*>B	*>B
!	!	!	!	!	!LO:DY:a:t=pianiſsi	!	!LO:DY:a:t=pianiſsime	!	!	!	!
4r	.	4r	.	8g/L	pp	8g/L	pp	4ryy	4ryy	4r	4r
.	.	.	.	8g/J	.	8g/J	.	.	.	.	.
=40	=40	=40	=40	=40	=40	=40	=40	=40	=40	=40	=40
!	!LO:DY:a:rj	!	!LO:DY:a:rj	!	!	!	!	!	!	!	!
4C/	p	4c\	p	4g/	.	4g/	.	1ryy	1ryy	4ee\	4gg\
4r	.	4r	.	8e/L	.	(8e/L	.	.	.	4r	4r
.	.	.	.	8c/J	.	8c/J)	.	.	.	.	.
4GG/	.	4G/	.	8c/L	.	(8c/L	.	.	.	4dd\	4ff\
.	.	.	.	8Bn/J	.	8Bn/J)	.	.	.	.	.
4r	.	4r	.	8BX/L	.	(8d/L	.	.	.	4r	4r
.	.	.	.	8d/J	.	8f/J)	.	.	.	.	.
=41	=41	=41	=41	=41	=41	=41	=41	=41	=41	=41	=41
2BBn/	.	2G/	.	2d/	.	2f/	.	1ryy	1ryy	2dd\	2ff\
4C/	.	4G/	.	4c/	.	4e/	.	.	.	4cc\	4ee\
4r	.	4r	.	8e/L	.	8g/L	.	.	.	4r	4r
.	.	.	.	8G/J	.	8G/J	.	.	.	.	.
!	!	!	!	!LO:LB:g=original	!	!	!	!	!	!	!
=42	=42	=42	=42	=42	=42	=42	=42	=42	=42	=42	=42
4F\	.	4f\	.	4A/	.	4A/	.	1ryy	1ryy	0r	1r
4r	.	4r	.	(8f/L	.	(8f/L	.	.	.	.	.
.	.	.	.	8d/J)	.	8d/J)	.	.	.	.	.
4G\	.	4g\	.	8c/L	.	8c/L	.	.	.	.	.
.	.	.	.	8Bn/J	.	8Bn/J	.	.	.	.	.
4r	.	4r	.	(8a/L	.	(8a/L	.	.	.	.	.
.	.	.	.	8f/J)	.	8f/J)	.	.	.	.	.
!	!	!	!	!	!	!LO:LB:g=original	!	!	!	!	!
=43	=43	=43	=43	=43	=43	=43	=43	=43	=43	=43	=43
2BBn/	.	2G/	.	2d/	.	(2f/	.	1ryy	1ryy	.	1r
4C/	.	4G/	.	4c/	.	4e/)	.	.	.	.	.
4r	.	4r	.	8g/L	.	8g/L	.	.	.	.	.
.	.	.	.	8G/J	.	8G/J	.	.	.	.	.
=44	=44	=44	=44	=44	=44	=44	=44	=44	=44	=44	=44
.	.	.	.	8qqG#X/	.	8qqG#X/	.	.	.	.	.
4F\	.	4d\	.	4A/	.	4A/	.	1ryy	1ryy	4r	4r
*	*	*	*	*Xtuplet	*	*	*	*	*	*	*
!	!	!	!	!	!	!	!	!	!	!LO:TUP:a	!LO:TX:t=P:problem=klamra łukowa
!	!	!	!	!	!	!LO:TUP:b	!	!	!	!LO:TX:t=P:problem=klamra łukowa	!LO:TUP:a
4F\	.	4f\	.	12f/L	.	12f/L	.	.	.	12ff\L	12aa\L
.	.	.	.	12e/	.	12e/	.	.	.	12ee\	12gg\
.	.	.	.	12d/J	.	12d/J	.	.	.	12dd\J	12ff\J
4G\	.	4g\	.	4c/	.	4c/	.	.	.	4cc\	4ee\
4GG/	.	4G/	.	4Bn/	.	4Bn/	.	.	.	4bn\	4dd\
=45	=45	=45	=45	=45	=45	=45	=45	=45	=45	=45	=45
!	!	!	!	!LO:SIC:v:s=8qqBn/	!	!LO:SIC:v:s=8qqBn/	!	!	!	!	!
.	.	.	.	8qqB-/	.	8qqB-/	.	.	.	8qqb-/	8qqdd/
4C/	.	2G/	.	2c/	.	4c/	.	1ryy	1ryy	4cc\	4ee\
4r	.	.	.	.	.	4r	.	.	.	4r	4r
2r	.	2r	.	4r	.	4r	.	.	.	2r	2r
.	.	.	.	8a|/L	.	8a|/L	.	.	.	.	.
.	.	.	.	8a|/J	.	8a|/J	.	.	.	.	.
=46	=46	=46	=46	=46	=46	=46	=46	=46	=46	=46	=46
4D/	.	4d\	.	4a/	.	4a/	.	1ryy	1ryy	4ff\	4aa\
4r	.	4r	.	(8f/L	.	(8f/L	.	.	.	4r	4r
.	.	.	.	8d/J)	.	8d/J)	.	.	.	.	.
4AA/	.	4A/	.	8d/L	.	(8d/L	.	.	.	4ee\	4gg\
.	.	.	.	8c#X/J	.	8c#X/J)	.	.	.	.	.
4r	.	4r	.	(8c#/L	.	8e/L	.	.	.	4r	4r
.	.	.	.	8e/J)	.	8g/J	.	.	.	.	.
!LO:LB:g=original	!	!LO:LB:g=original	!	!	!	!	!	!	!	!LO:LB:g=original	!
=47	=47	=47	=47	=47	=47	=47	=47	=47	=47	=47	=47
2C#X/	.	2A/	.	(2e/	.	(2g/	.	1ryy	1ryy	2ee\	2gg\
4D/	.	4A/	.	4d/)	.	4f/)	.	.	.	4dd\	4ff\
4r	.	4r	.	8f/L	.	8a|/L	.	.	.	4r	4r
.	.	.	.	8f/J	.	8a|/J	.	.	.	.	.
=48	=48	=48	=48	=48	=48	=48	=48	=48	=48	=48	=48
!	!	!	!	!LO:N:vis=4	!	!	!	!	!	!	!
2C#X/	.	2e\	.	4.g/	.	4.b-X/	.	1ryy	1ryy	4.gg\	4.bb-\
.	.	.	.	8f/	.	8a/	.	.	.	8ff\	8aa\
!	!	!	!	!LO:LB:g=original	!	!	!	!	!	!	!
4G\	.	4g\	.	8e/L	.	8g/L	.	.	.	8ee\L	8gg\L
.	.	.	.	8d/	.	8f/	.	.	.	8dd\	8ff\
4G#X\	.	4g#X\	.	8c#X/	.	8e/	.	.	.	8cc#X\	8ee\
.	.	.	.	8B-X/J	.	8d/J	.	.	.	8dd\J	8ff\J
=49	=49	=49	=49	=49	=49	=49	=49	=49	=49	=49	=49
.	.	.	.	8qqB-/	.	8qqd/	.	.	.	8qqdd/	8qqff/
4A\	.	4a\	.	2A/	.	2c#X/	.	1ryy	1ryy	2cc#X\	2ee\
4AA/	.	4A/	.	.	.	.	.	.	.	.	.
4AA/	.	4A/	.	4r	.	4r	.	.	.	2r	2r
4r	.	4r	.	8a/L	.	8a/L	.	.	.	.	.
.	.	.	.	8a/J	.	8a/J	.	.	.	.	.
!	!	!	!	!	!	!LO:LB:g=original	!	!	!	!	!LO:LB:g=original
=50	=50	=50	=50	=50	=50	=50	=50	=50	=50	=50	=50
4D\	.	4f#X\	.	4a/	.	4a/	.	1ryy	1ryy	2ff#X\	2ddd\
4D\	.	4f#\	.	(8f#X/L	.	(8f#X/L	.	.	.	.	.
.	.	.	.	8d/J)	.	8d/J)	.	.	.	.	.
4F#X\	.	4a\	.	(8d/L	.	(8d/L	.	.	.	2aa\	2ccc\
.	.	.	.	8f#/J)	.	8f#/J)	.	.	.	.	.
4D\	.	4f#\	.	(8a/L	.	(8a/L	.	.	.	.	.
.	.	.	.	8cc/J)	.	8cc/J)	.	.	.	.	.
=51	=51	=51	=51	=51	=51	=51	=51	=51	=51	=51	=51
.	.	.	.	8qqa/	.	8qqcc/	.	.	.	8qqaa/	8qqccc/
4G\	.	4d\	.	4g/	.	2b-X/	.	1ryy	1ryy	2gg\	2bb-\
4F\	.	4d\	.	4r	.	.	.	.	.	.	.
4GG/	.	4d\	.	4r	.	4r	.	.	.	2r	2r
4r	.	4r	.	8g|/L	.	8g|/L	.	.	.	.	.
.	.	.	.	8g|/J	.	8g|/J	.	.	.	.	.
=52	=52	=52	=52	=52	=52	=52	=52	=52	=52	=52	=52
4C/	.	4e\	.	4g/	.	4g/	.	1ryy	1ryy	2ee\	2ccc\
4C/	.	4e\	.	(8e/L	.	(8e/L	.	.	.	.	.
.	.	.	.	8cn/J)	.	8c/J)	.	.	.	.	.
4E/	.	4g\	.	4c/	.	8c/L	.	.	.	2gg\	2bb-X\
.	.	.	.	.	.	8e/	.	.	.	.	.
4C/	.	4e\	.	(8e/L	.	8g/	.	.	.	.	.
.	.	.	.	8g/J)	.	8b-/J	.	.	.	.	.
=53	=53	=53	=53	=53	=53	=53	=53	=53	=53	=53	=53
.	.	.	.	8qqg/	.	8qqb-/	.	.	.	8qqgg/	8qqbb-/
4Fn\	.	4c\	.	2f/	.	2a/	.	1ryy	1ryy	2ff\	2aa\
4C/	.	4c\	.	.	.	.	.	.	.	.	.
4FF/	.	4c\	.	4r	.	4r	.	.	.	2r	2r
4r	.	4r	.	8cc\L	.	8cc\L	.	.	.	.	.
.	.	.	.	8cc\J	.	8cc\J	.	.	.	.	.
!	!	!LO:LB:g=original	!	!LO:LB:g=original	!	!	!	!	!	!	!
=54	=54	=54	=54	=54	=54	=54	=54	=54	=54	=54	=54
4F\	.	4f\	.	4cc\	.	4cc\	.	1ryy	1ryy	1r	1r
4r	.	4r	.	(8a\L	.	(8a\L	.	.	.	.	.
.	.	.	.	8f\J)	.	8f\J)	.	.	.	.	.
4C/	.	4c\	.	(8f/L	.	8f/L	.	.	.	.	.
.	.	.	.	8d/J)	.	8e/J	.	.	.	.	.
4r	.	4r	.	8e/L	.	8g/L	.	.	.	.	.
.	.	.	.	8g/J	.	8b-/J	.	.	.	.	.
!LO:LB:g=original	!	!	!	!	!	!	!	!	!	!	!
=55	=55	=55	=55	=55	=55	=55	=55	=55	=55	=55	=55
.	.	.	.	8qqg/	.	8qqb-/	.	.	.	.	.
4r	.	4r	.	2f/	.	2a/	.	1ryy	1ryy	2r	2r
4FF/	.	4c/	.	.	.	.	.	.	.	.	.
!	!LO:DY:a	!	!	!	!LO:DY:a:t=f.	!	!	!	!	!	!
4F\	f	4c/	.	4r	f	4r	.	.	.	4r	4r
!	!	!	!LO:DY:t=for	!	!	!	!LO:DY:a:rj:t=f.	!	!	!	!
8c\L	.	8cc\L	f	8cc\L	.	8ccc\L	f	.	.	8ccc\L	8ccc\L
8c\J	.	8cc\J	.	8cc\J	.	8ccc\J	.	.	.	8ccc\J	8ccc\J
=56	=56	=56	=56	=56	=56	=56	=56	=56	=56	=56	=56
4c\	.	4cc\	.	4cc\	.	4ccc\	.	1ryy	1ryy	4ccc\	4ccc\
8A\L	.	8a\L	.	(8a\L	.	(8aa\L	.	.	.	8aa\L	8aa\L
8F\J	.	8f\J	.	8f\J)	.	8ff\J)	.	.	.	8ff\J	8ff\J
!	!	!	!	!	!	!LO:LB:g=original	!	!	!	!	!
8F\L	.	8f\L	.	(8f/L	.	(8ff\L	.	.	.	(8ff\L	8ff\L
8E\J	.	8e\J	.	8e/J)	.	8ee\J)	.	.	.	8ee\J)	8ee\J
4C/	.	4c\	.	(8e/L	.	(8gg\L	.	.	.	(8ee\L	8gg\L
.	.	.	.	8g/J)	.	8bb-\J)	.	.	.	8gg\J)	8bb-\J
!	!	!	!	!	!	!	!	!	!	!LO:LB:g=original	!
=57	=57	=57	=57	=57	=57	=57	=57	=57	=57	=57	=57
.	.	.	.	8qqg/	.	8qqbb-/	.	.	.	8qqgg/	8qqbb-/
4r	.	4r	.	2f/	.	2aa\	.	1ryy	1ryy	2ff\	2aa\
4FF/	.	4c/	.	.	.	.	.	.	.	.	.
4F\	.	4c/	.	4r	.	4r	.	.	.	2r	2r
!	!	!	!	!	!LO:DY:a:t=p.	!	!LO:DY:a	!	!	!	!
4r	.	4r	.	8A/L	p	8c/L	p	.	.	.	.
.	.	.	.	8c/J	.	8e-X/J	.	.	.	.	.
=58	=58	=58	=58	=58	=58	=58	=58	=58	=58	=58	=58
!	!LO:DY:a:rj	!	!LO:DY:a:rj:t=f.	!	!LO:DY:a	!	!LO:DY:a	!	!	!	!
(2AA/	f	(2A/	f	(2c/	f	(2e/	f	1ryy	1ryy	0r	0r
!	!LO:DY:a:rj:t=p	!	!	!	!LO:DY:a:t=p	!	!LO:DY:a	!	!	!	!
4BB-/)	p	4B-/)	.	4B-/)	p	4d/)	p	.	.	.	.
4r	.	4r	.	(8Bn/L	.	8d/L	.	.	.	.	.
.	.	.	.	8d/J)	.	8f/J	.	.	.	.	.
=59	=59	=59	=59	=59	=59	=59	=59	=59	=59	=59	=59
!	!LO:DY:a:rj	!	!LO:DY:a	!	!LO:DY:a	!	!LO:DY:a	!	!	!	!
(2BBn/	f	(2Bn/	f	(2d/	f	2f/	f	1ryy	1ryy	.	.
!	!LO:DY:a:rj	!	!LO:DY:a	!	!	!	!LO:DY:a	!	!	!	!
4C/)	p	4c/)	p	4c/)	.	4en/	p	.	.	.	.
!	!	!	!	!	!LO:DY:a:t=p	!	!	!	!	!	!
4r	.	4r	.	8e/L	p	8g/L	.	.	.	.	.
.	.	.	.	8g/J	.	8b-/J	.	.	.	.	.
!	!	!	!	!LO:LB:g=original	!	!	!	!	!	!	!
=60	=60	=60	=60	=60	=60	=60	=60	=60	=60	=60	=60
!	!LO:DY:a:rj:t=f	!	!	!	!LO:DY:a:rj	!	!LO:DY:a:rj:t=f.	!	!	!	!
2E\	f	2c/	.	(2g/	f	(2b-/	f	1ryy	1ryy	(2gg\	2bb-\
!	!LO:DY:a:rj:t=p.	!	!	!	!LO:DY:a:t=p	!	!LO:DY:a:t=p	!	!	!	!
4F\	p	4c/	.	4f/)	p	4a/)	p	.	.	4ff\)	4aa\
4C\	.	4c/	.	(8e/L	.	8g/L	.	.	.	(8ee\L	(8gg\L
.	.	.	.	8g/J)	.	8b-/J	.	.	.	8gg\J)	8bb-\J)
!	!	!LO:LB:g=original	!	!	!	!	!	!	!	!	!
=61	=61	=61	=61	=61	=61	=61	=61	=61	=61	=61	=61
!	!LO:DY:a:rj:t=f.	!	!	!	!LO:DY:a:rj:t=f	!	!LO:DY:a	!	!	!	!
2E\	f	2c/	.	(2g/	f	(2b-/	f	1ryy	1ryy	(2gg\	2bb-\
!	!LO:DY:a:rj:t=p	!	!	!	!LO:DY:a:rj:t=p	!	!LO:DY:a:t=p	!	!	!	!
4F\	p	4c/	.	4f/)	p	4a/)	p	.	.	4ff\)	4aa\
4r	.	4r	.	(8f/L	.	8f/L	.	.	.	4r	4r
.	.	.	.	8a/J)	.	8a/J	.	.	.	.	.
=62	=62	=62	=62	=62	=62	=62	=62	=62	=62	=62	=62
4BB-/	.	4B-/	.	4d/	.	4d/	.	1ryy	1ryy	1r	1r
4r	.	4r	.	(8b-/L	.	(8b-/L	.	.	.	.	.
.	.	.	.	8g/J)	.	8g/J)	.	.	.	.	.
4C/	.	4c/	.	(8f/L	.	(8f/L	.	.	.	.	.
.	.	.	.	8e/J)	.	8e/J)	.	.	.	.	.
4r	.	4r	.	(8g/L	.	(8b-\L	.	.	.	.	.
.	.	.	.	8b-/J)	.	8dd\J)	.	.	.	.	.
!LO:LB:g=original	!	!	!	!	!	!LO:LB:g=original	!	!	!	!	!LO:LB:g=original
=63	=63	=63	=63	=63	=63	=63	=63	=63	=63	=63	=63
!	!LO:DY:a:t=f	!	!	!	!LO:DY:a:t=f	!	!LO:DY:a	!	!	!	!
2En\	f	2e\	.	2b-/	f	(2dd\	f	1ryy	1ryy	2bb-\	2ddd\
!	!LO:DY:a:rj:t=p	!	!	!	!LO:DY:a:rj:t=p	!	!	!	!	!	!
4F\	p	4f\	.	(4a/	p	4cc\)	.	.	.	4aa\	4ccc\
4E\	.	4e\	.	4g/)	.	4b-\	.	.	.	4gg\	4bb-\
=64	=64	=64	=64	=64	=64	=64	=64	=64	=64	=64	=64
.	.	.	.	.	.	8qqb-/	.	.	.	.	.
*	*	*	*	*	*	*Xtuplet	*	*	*	*Xtuplet	*Xtuplet
4F\	.	4f\	.	12c/L	.	12a/L	.	1ryy	1ryy	12aa\L	12ccc\L
.	.	.	.	12B-/	.	12g/	.	.	.	12gg\	12bb-\
.	.	.	.	12c/J	.	12a/J	.	.	.	12aa\J	12ccc\J
.	.	.	.	.	.	8qqcc/	.	.	.	.	.
4BB-/	.	4B-\	.	12d/L	.	12b-/L	.	.	.	12bb-\L	12ddd\L
.	.	.	.	12c/	.	12a/	.	.	.	12aa\	12ccc\
.	.	.	.	12B-/J	.	12g/J	.	.	.	12gg\J	12bb-\J
4C/	.	4c\	.	4A/	.	4f/	.	.	.	4ff\	4aa\
!LO:TX:t=vi	!	!	!	!	!	!	!	!	!	!	!
4C/	.	4c\	.	4G/	.	4e/	.	.	.	4ee\	4gg\
=65	=65	=65	=65	=65	=65	=65	=65	=65	=65	=65	=65
.	.	.	.	8qqG/	.	8qqe/	.	.	.	8qqee/	8qqgg/
!LO:TX:rj:t=de	!	!	!	!	!	!	!	!	!	!	!
4F\	.	4f\	.	2A/	.	2f/	.	1ryy	1ryy	2ff\	2aa\
4C\	.	4c\	.	.	.	.	.	.	.	.	.
4FF/	.	4F/	.	4r	.	4r	.	.	.	2r	2r
4r	.	4r	.	(8A/L	.	8c/L	.	.	.	.	.
.	.	.	.	8c/J)	.	8e-X/J	.	.	.	.	.
!	!	!	!	!LO:LB:g=original	!	!	!	!	!	!	!
=66	=66	=66	=66	=66	=66	=66	=66	=66	=66	=66	=66
!	!LO:DY:a	!	!LO:DY:a	!	!LO:DY:a:rj:t=f	!	!LO:DY:a:rj	!	!	!	!
2AA/	f	(2A/	f	(2c/	f	(2e/	f	1ryy	1ryy	0r	0r
!	!LO:DY:a	!	!LO:DY:a:t=p	!	!LO:DY:a:t=p	!	!LO:DY:a:t=p	!	!	!	!
4BB-/	p	4B-/)	p	4B-/)	p	4d/)	p	.	.	.	.
4r	.	4r	.	(8Bn/L	.	(8d/L	.	.	.	.	.
.	.	.	.	8d/J)	.	8f/J)	.	.	.	.	.
=67	=67	=67	=67	=67	=67	=67	=67	=67	=67	=67	=67
!	!LO:DY:a	!	!LO:DY:a	!	!LO:DY:a:rj	!	!LO:DY:a:t=f.	!	!	!	!
2BBn/	f	(2Bn/	f	(2d/	f	(2f/	f	1ryy	1ryy	.	.
!	!LO:DY:a	!	!LO:DY:a:t=p.	!	!LO:DY:a:t=p	!	!LO:DY:a:t=p	!	!	!	!
4C/	p	4c/)	p	4c/)	p	4en/)	p	.	.	.	.
4r	.	4r	.	(8e/L	.	8g/L	.	.	.	.	.
.	.	.	.	8g/J)	.	8b-/J	.	.	.	.	.
=68	=68	=68	=68	=68	=68	=68	=68	=68	=68	=68	=68
!	!LO:DY:a:rj	!	!LO:DY:a	!	!LO:DY:a	!	!LO:DY:a:rj:t=f.	!	!	!	!
(2E\	f	2c/	f	(2g/	f	(2b-/	f	1ryy	1ryy	2gg\	(2bb-\
!	!	!	!LO:DY:a:t=p	!	!LO:DY:a:t=p	!	!LO:DY:a:t=p	!	!	!	!
4F\)	.	4c/	p	4f/)	p	4a/)	p	.	.	4ff\	4aa\)
!	!LO:DY:a	!	!	!	!	!	!	!	!	!	!
4C\	p	4c/	.	(8e/L	.	8g/L	.	.	.	(8ee\L	(8gg\L
.	.	.	.	8g/J)	.	8b-/J	.	.	.	8gg\J)	8bb-\J)
!	!	!LO:LB:g=original	!	!	!	!LO:LB:g=original	!	!	!	!	!
=69	=69	=69	=69	=69	=69	=69	=69	=69	=69	=69	=69
!	!LO:DY:a:rj	!	!LO:DY:a:rj	!	!LO:DY:a:t=f.	!	!LO:DY:a:t=f	!	!	!	!
2E\	f	2c/	f	2g/	f	2b-/	f	1ryy	1ryy	(2gg\	2bb-\
!	!LO:DY:a	!	!LO:DY:a:t=p	!	!LO:DY:a:t=p	!	!LO:DY:a:t=p	!	!	!	!
4F\	p	4c/	p	4f/	p	4a/	p	.	.	4ff\)	4aa\
4r	.	4r	.	(8f/L	.	8f/L	.	.	.	4r	4r
.	.	.	.	8a/J)	.	8a/J	.	.	.	.	.
=70	=70	=70	=70	=70	=70	=70	=70	=70	=70	=70	=70
4BB-/	.	4B-/	.	4d/	.	4d/	.	1ryy	1ryy	1r	1r
4r	.	4r	.	8b-/L	.	(8b-/L	.	.	.	.	.
.	.	.	.	8g/J	.	8g/J)	.	.	.	.	.
4C/	.	4c/	.	8f/L	.	8f/L	.	.	.	.	.
.	.	.	.	8e/J	.	8e/J	.	.	.	.	.
4r	.	4r	.	8g/L	.	(8b-\L	.	.	.	.	.
.	.	.	.	8b-/J	.	8dd\J)	.	.	.	.	.
=71	=71	=71	=71	=71	=71	=71	=71	=71	=71	=71	=71
!	!LO:DY:a:rj	!	!	!	!LO:DY:a:rj:t=f.	!	!LO:DY:a	!	!	!	!
2En\	f	2e\	.	2b-\	f	(2dd\	f	1ryy	1ryy	2bb-\	2ddd\
!	!LO:DY:a:rj	!	!	!	!LO:DY:a:t=p.	!	!	!	!	!LO:N:vis=8	!
4F\	p	4f\	.	4a\	p	4cc\)	.	.	.	4aa\L	4ccc\
!	!	!	!	!	!	!	!LO:DY:a:rj	!	!	!LO:N:vis=8	!
4E\	.	4e\	.	4g\	.	4b-\	p	.	.	4gg\J	4bb-\
!	!	!	!	!	!	!	!	!	!	!LO:LB:g=original	!
=72	=72	=72	=72	=72	=72	=72	=72	=72	=72	=72	=72
4F\	.	4f\	.	4c/	.	4a/	.	1ryy	1ryy	4cc\	4aa\
.	.	.	.	.	.	8qqcc/	.	.	.	.	.
*	*	*	*	*	*	*tuplet	*	*	*	*	*tuplet
!	!	!	!	!	!	!LO:TUP:b	!	!	!	!	!LO:TUP:a
!	!	!	!	!	!	!LO:TX:t=P:problem=klamra łukowa	!	!	!	!	!LO:TX:t=P:problem=klamra łukowa
4BB-/	.	4B-\	.	12d/L	.	12b-/L	.	.	.	12dd\L	12bb-\L
.	.	.	.	12c/	.	12a/	.	.	.	12cc\	12aa\
.	.	.	.	12B-/J	.	12g/J	.	.	.	12b-\J	12gg\J
!	!	!	!	!LO:LB:g=original	!	!	!	!	!	!	!
4C/	.	4c\	.	4A/	.	4f/	.	.	.	4a/	4ff\
4C/	.	4c\	.	4G/	.	4e/	.	.	.	4g/	4ee\
!LO:LB:g=original	!	!	!	!	!	!	!	!	!	!	!
=73	=73	=73	=73	=73	=73	=73	=73	=73	=73	=73	=73
8F\	.	4c/	.	8A/	.	8f/	.	1ryy	1ryy	4a/	4ff\
8r	.	.	.	8r	.	8r	.	.	.	.	.
4r	.	4r	.	4r	.	4r	.	.	.	4r	4r
8C/	.	4c/	.	8e/	.	8g/	.	.	.	4ee\	4gg\
8r	.	.	.	8r	.	8r	.	.	.	.	.
4r	.	4r	.	4r	.	4r	.	.	.	4r	4r
!	!	!	!	!	!	!LO:LB:g=original	!	!	!	!	!LO:LB:g=original
=74	=74	=74	=74	=74	=74	=74	=74	=74	=74	=74	=74
8F\	.	4c/	.	8f/	.	8a/	.	1ryy	1ryy	4ff\	4aa\
8r	.	.	.	8r	.	8r	.	.	.	.	.
4r	.	4r	.	4r	.	4r	.	.	.	4r	4r
8E\	.	4c/	.	8g/	.	8b-/	.	.	.	4gg\	4bb-\
8r	.	.	.	8r	.	8r	.	.	.	.	.
4r	.	4r	.	4r	.	4r	.	.	.	4r	4r
=75	=75	=75	=75	=75	=75	=75	=75	=75	=75	=75	=75
8qqE/	.	8qqe/	.	8qqg/	.	8qqb-/	.	.	.	8qqgg#X/	.
2F\	.	2f\	.	2a/	.	2cc\	.	1ryy	1ryy	2aa\	2ccc\
2r	.	4r	.	4r	.	4r	.	.	.	2r	2r
.	.	4r	.	(8c/L	.	(8cc\L	.	.	.	.	.
.	.	.	.	8f/J)	.	8ff\J)	.	.	.	.	.
!	!	!LO:LB:g=original	!	!	!	!	!	!	!	!	!
=76	=76	=76	=76	=76	=76	=76	=76	=76	=76	=76	=76
4r	.	4r	.	(8f/L	.	(8ff\L	.	1ryy	1ryy	4r	4r
.	.	.	.	8d/J)	.	8dd\J)	.	.	.	.	.
4BB-/	.	4B-/	.	2d/	.	2dd\	.	.	.	4bb-\	4ddd\
4B-\	.	4b-\	.	.	.	.	.	.	.	4bb-\	4ddd\
4r	.	4r	.	(8d/L	.	(8dd\L	.	.	.	4r	4r
.	.	.	.	8f/J)	.	8ff\J)	.	.	.	.	.
=77	=77	=77	=77	=77	=77	=77	=77	=77	=77	=77	=77
4r	.	4r	.	8f/L	.	8ff\L	.	1ryy	1ryy	4r	4r
.	.	.	.	8c/J	.	8cc\J	.	.	.	.	.
4FF/	.	4F/	.	2c/	.	2cc\	.	.	.	4aa\	4ccc\
4F\	.	4f\	.	.	.	.	.	.	.	4aa\	4ccc\
4r	.	4r	.	8A/L	.	8ff\L	.	.	.	4r	4r
.	.	.	.	8B-/J	.	8dd\J	.	.	.	.	.
!LO:LB:g=original	!	!	!	!	!	!	!	!	!	!	!
=78	=78	=78	=78	=78	=78	=78	=78	=78	=78	=78	=78
4AA/	.	4A/	.	4a/	.	4cc\	.	1ryy	1ryy	4aa\	4ccc\
*	*	*	*	*tuplet	*	*	*	*	*	*	*
!	!	!	!	!LO:TUP:b	!	!LO:TUP:a	!	!	!	!	!LO:TUP:a
!	!	!	!	!LO:TX:t=P:problem=klamra łukowa	!	!LO:TX:t=P:problem=klamra łukowa	!	!	!	!	!LO:TX:t=P:problem=klamra łukowa
4BB-/	.	4B-/	.	(12b-/L	.	12dd\L	.	.	.	12bb-\L	12ddd\L
.	.	.	.	12a/	.	12cc\	.	.	.	12aa\	12ccc\
.	.	.	.	12g/J)	.	12b-\J	.	.	.	12gg\J	12bb-\J
4C/	.	4c/	.	4f/	.	4a/	.	.	.	4ff\	4aa\
4C/	.	4c/	.	4e/	.	4g/	.	.	.	4ee\	4gg\
!	!	!	!	!LO:LB:g=original	!	!	!	!	!	!	!
=79	=79	=79	=79	=79	=79	=79	=79	=79	=79	=79	=79
.	.	.	.	8qqg/	.	8qqg/	.	.	.	8qqee/	8qqgg/
4F\	.	4f\	.	2f/	.	2f/	.	1ryy	1ryy	2ff\	2aa\
4C\	.	4c\	.	.	.	.	.	.	.	.	.
4FF/	.	4F/	.	4r	.	4r	.	.	.	2r	2r
!	!	!	!	!	!	!LO:LB:g=original	!	!	!	!	!
4r	.	4r	.	8cc\L	.	8cc|\L	.	.	.	.	.
.	.	.	.	8cc\J	.	8cc|\J	.	.	.	.	.
=80	=80	=80	=80	=80	=80	=80	=80	=80	=80	=80	=80
4F\	.	4f\	.	4cc\	.	4cc\	.	1ryy	1ryy	0r	0r
4r	.	4r	.	(8a\L	.	(8a\L	.	.	.	.	.
.	.	.	.	8f\J)	.	8f\J)	.	.	.	.	.
4C/	.	4c\	.	(8f/L	.	(8f/L	.	.	.	.	.
.	.	.	.	8e/J)	.	8e/J)	.	.	.	.	.
4r	.	4r	.	(8g/L	.	(8g/L	.	.	.	.	.
.	.	.	.	8b-/J)	.	8b-/J)	.	.	.	.	.
=81	=81	=81	=81	=81	=81	=81	=81	=81	=81	=81	=81
2E\	.	2c/	.	2g/	.	(2b-/	.	1ryy	1ryy	.	.
4F\	.	4c/	.	4f/	.	4a/)	.	.	.	.	.
4AA/	.	4A/	.	8f/L	.	8f|/L	.	.	.	.	.
.	.	.	.	8f/J	.	8f|/J	.	.	.	.	.
=82	=82	=82	=82	=82	=82	=82	=82	=82	=82	=82	=82
4BB-/	.	4B-/	.	4d/	.	4d/	.	1ryy	1ryy	4b-\	4dd\
4GG/	.	4G/	.	4d/	.	4b-/	.	.	.	4dd\	4bb-\
!	!	!	!	!	!	!	!	!	!	!LO:LB:g=original	!
4C/	.	4c/	.	8c/L	.	8a/L	.	.	.	8cc\L	8aa\L
.	.	.	.	8B-/	.	8g/	.	.	.	8b-\	8gg\
4C/	.	4c/	.	8A/	.	8f/	.	.	.	8a\	8ff\
.	.	.	.	8G/J	.	8e/J	.	.	.	8g\J	8ee\J
!	!	!LO:LB:g=original	!	!	!	!	!	!	!	!	!
=83	=83	=83	=83	=83	=83	=83	=83	=83	=83	=83	=83
.	.	.	.	8qqB-/	.	8qqe/	.	.	.	8qqg/	8qqee/
4F\	.	4f\	.	2A/	.	2f/	.	1ryy	1ryy	2a/	2ff\
4C\	.	4c\	.	.	.	.	.	.	.	.	.
!	!	!	!	!	!	!LO:TX:b:i:t=Volti Presto	!	!	!	!	!
4FF/	.	4F/	.	2r	.	2r	.	.	.	2r	4r
4ryy	.	4ryy	.	.	.	.	.	.	.	.	4ryy
=:|!	=:|!	=:|!	=:|!	=:|!	=:|!	=:|!	=:|!	=:|!	=:|!	=:|!	=:|!
*-	*-	*-	*-	*-	*-	*-	*-	*-	*-	*-	*-
!!!system-decoration: [(g1)][(g2)][(g3)]
!!!RDF**dynam: f = "f:"
!!!RDF**dynam: p = "p:"
!!!ENC: Tomasz Grochalski
!!!END: 2020-07-22
!!!EED: Andrzej Borzym
!!!EEV: 2022-02-20
